build/svg/cmd/nl/sc_underline.svg

<?xml version="1.0" encoding="UTF-8" standalone="no"?>
<svg
   xmlns:dc="http://purl.org/dc/elements/1.1/"
   xmlns:cc="http://creativecommons.org/ns#"
   xmlns:rdf="http://www.w3.org/1999/02/22-rdf-syntax-ns#"
   xmlns:svg="http://www.w3.org/2000/svg"
   xmlns="http://www.w3.org/2000/svg"
   xmlns:sodipodi="http://sodipodi.sourceforge.net/DTD/sodipodi-0.dtd"
   xmlns:inkscape="http://www.inkscape.org/namespaces/inkscape"
   viewBox="0 0 16 16"
   version="1.1"
   id="svg4"
   sodipodi:docname="sc_underline.svg"
   inkscape:export-filename="/home/jupiter007/Libreoffice yaru theme fullcolor/build/cmd/nl/sc_underline.png"
   inkscape:export-xdpi="96"
   inkscape:export-ydpi="96"
   inkscape:version="0.92.5 (2060ec1f9f, 2020-04-08)">
  <metadata
     id="metadata10">
    <rdf:RDF>
      <cc:Work
         rdf:about="">
        <dc:format>image/svg+xml</dc:format>
        <dc:type
           rdf:resource="http://purl.org/dc/dcmitype/StillImage" />
      </cc:Work>
    </rdf:RDF>
  </metadata>
  <defs
     id="defs8" />
  <sodipodi:namedview
     pagecolor="#ffffff"
     bordercolor="#666666"
     borderopacity="1"
     objecttolerance="10"
     gridtolerance="10"
     guidetolerance="10"
     inkscape:pageopacity="0"
     inkscape:pageshadow="2"
     inkscape:window-width="1920"
     inkscape:window-height="1011"
     id="namedview6"
     showgrid="false"
     inkscape:zoom="14.75"
     inkscape:cx="0.44067797"
     inkscape:cy="8"
     inkscape:window-x="0"
     inkscape:window-y="32"
     inkscape:window-maximized="1"
     inkscape:current-layer="svg4" />
  <path
     inkscape:connector-curvature="0"
     style="opacity:0.6;fill:#000000;fill-opacity:1;stroke:#000000;stroke-width:2;stroke-linejoin:round;stroke-miterlimit:4;stroke-dasharray:none;stroke-opacity:1"
     d="M 2.0000001,15 V 14 H 14 v 1 z M 7.9999998,13 C 5.7840002,13 4.0000001,11.216 4.0000001,8.9999999 V 5.0000001 c 0,-2.216 1.784,-4 3.9999997,-4 2.2160002,0 4.0000002,1.784 4.0000002,4 V 8.9999999 C 12,11.216 10.216,13 7.9999998,13 Z M 7.5000001,11 h 0.9999998 c 0.831,0 1.5,-0.892 1.5,-2.0000001 V 5.0000001 c 0,-1.108 -0.669,-2 -1.5,-2 H 7.5000001 c -0.8309999,0 -1.5,0.892 -1.5,2 V 8.9999999 C 6.0000001,10.108 6.6690002,11 7.5000001,11 Z"
     id="rect832" />
  <rect
     style="opacity:1;fill:#ffffff;fill-opacity:1;stroke:none;stroke-width:1;stroke-linejoin:round;stroke-miterlimit:4;stroke-dasharray:none;stroke-opacity:1"
     id="rect830"
     width="12"
     height="1"
     x="1.9999998"
     y="-15"
     transform="scale(1,-1)" />
  <path
     inkscape:connector-curvature="0"
     style="opacity:1;fill:#ffffff;fill-opacity:1;stroke:none;stroke-width:1.49811828;stroke-linejoin:round;stroke-miterlimit:4;stroke-dasharray:none;stroke-opacity:1"
     d="M 7.9999998,13 C 5.7840002,13 4.0000001,11.216 4.0000001,8.9999999 V 5.0000001 c 0,-2.216 1.784,-4 3.9999997,-4 2.2160002,0 4.0000002,1.784 4.0000002,4 V 8.9999999 C 12,11.216 10.216,13 7.9999998,13 Z M 7.5000001,11 h 0.9999998 c 0.831,0 1.5,-0.892 1.5,-2.0000001 V 5.0000001 c 0,-1.108 -0.669,-2 -1.5,-2 H 7.5000001 c -0.8309999,0 -1.5,0.892 -1.5,2 V 8.9999999 C 6.0000001,10.108 6.6690002,11 7.5000001,11 Z"
     id="rect817" />
</svg>

<svg xmlns="http://www.w3.org/2000/svg" viewBox="0 0 16 16"><path d="M2 15v-1h12v1zm6-2c-2.216 0-4-1.784-4-4V5c0-2.216 1.784-4 4-4s4 1.784 4 4v4c0 2.216-1.784 4-4 4zm-.5-2h1c.831 0 1.5-.892 1.5-2V5c0-1.108-.669-2-1.5-2h-1C6.669 3 6 3.892 6 5v4c0 1.108.669 2 1.5 2z" opacity=".6" stroke="#000" stroke-width="2" stroke-linejoin="round"/><path fill="#fff" d="M2 15h12v-1H2zM8 13c-2.216 0-4-1.784-4-4V5c0-2.216 1.784-4 4-4s4 1.784 4 4v4c0 2.216-1.784 4-4 4zm-.5-2h1c.831 0 1.5-.892 1.5-2V5c0-1.108-.669-2-1.5-2h-1C6.669 3 6 3.892 6 5v4c0 1.108.669 2 1.5 2z"/></svg>
